!!!COM: Bach, Johann Sebastian
!!!OTL@@DE: 40. Ach Gott und Herr, wie gross und schwer
!!!OTL@EN: Ah, God and Lord, how great and heavy my sins
!!!SCA: BWV 240
**harm	**root	**kern	**kern	**kern	**kern
*staff2	*	*staff2	*staff2	*staff1	*staff1
*Iorgan	*Iorgan	*Iorgan	*Iorgan	*Iorgan	*Iorgan
!	!	!bass	!tenor	!alto	!sprno
*	*	*clefF4	*clefF4	*clefG2	*clefG2
*k[f#c#g#d#]	*k[f#c#g#d#]	*k[f#c#g#d#]	*k[f#c#g#d#]	*k[f#c#g#d#]	*k[f#c#g#d#]
*E:	*E:	*E:	*E:	*E:	*E:
*met(c)	*met(c)	*met(c)	*met(c)	*met(c)	*met(c)
*M4/4	*M4/4	*M4/4	*M4/4	*M4/4	*M4/4
*MM60	*MM60	*MM60	*MM60	*MM60	*MM60
I	4CC	4E	4g#	4b	4ee
=1	=1	=1	=1	=1	=1
V	4GG	4B	[4f#	4b	4dd#
V7/V	4DD	4F#	8f#L]	4a#	4cc#
.	.	.	8eJ	.	.
V;	4GG;	4BB;	4d#;	4f#;	4b;
I	4CC	4E	8eL	8g#L	4b
.	.	.	8dJ	8f#J	.
=2	=2	=2	=2	=2	=2
IV	4FF	8AL	8c#L	4e	4cc#
.	.	8G#J	8BJ	.	.
viiob	4BB	4F#	4A	4f#	4dd#
I;	4CC;	4E;	4B;	4g#;	4ee;
V	4GG	4BB	4d#	[4b	4ff#
=3	=3	=3	=3	=3	=3
viiob/V	4FF#	4C#	4e	8bL]	4ee
.	.	.	.	8a#J	.
Vb	4GG	8D#L	4f#	4b	4dd#
.	.	8EJ	.	.	.
V/V	4DD	4F#	4f#	4a#	4cc#
V	4GG	4B	4f#	[4b	8dd#L
.	.	.	.	.	8eeJ
=4	=4	=4	=4	=4	=4
vi7b	4AA	4E	4g#	4b]	2cc#
V7/V	4DD	4F#	8f#L	4a#	.
.	.	.	8eJ	.	.
V;	4GG;	4BB;	4d#;	4f#;	4b;
Ib	4CC	4G#	4e	4b	4ee
=5	=5	=5	=5	=5	=5
!!linebreak: 2
viiob	4BB	4F#	4f#	4a	4dd#
I	4CC	4E	4g#	4b	4ee
V;	4GG;	4B;	4d#;	4b;	4ff#;
V	4GG	4B	4d#	4b	4ff#
=6	=6	=6	=6	=6	=6
I	4CC	8eL	4e	4b	4gg#
.	.	8d#J	.	.	.
V7c/V	4DD	4c#	4e	4a#	8ff#L
.	.	.	.	.	8eeJ
V;	4GG;	4B;	4d#;	4b;	4ff#;
Ib	4CC	4G#	4e	4b	4b
=7	=7	=7	=7	=7	=7
V7b/V	4DD	4A#	4e	4f#	4cc#
viio/VI	4GG#	4B#	4d#	4f#	4dd#
vi	4AA	4c#	8g#L	4.e	8eeL
.	.	.	8a	.	8ff#
Ic	8CC	8BL	8b	.	8gg#
IV	8FF	8AJ	8eJ	8cc#	8aaJ
=8	=8	=8	=8	=8	=8
Ic	4CC	4B	4e	4.b	2ff#
V7	4GG	4BB	4d#	.	.
.	.	.	.	8a	.
I;	4CC;	4E;	4B;	4g#;	4ee;
==	==	==	==	==	==
*-	*-	*-	*-	*-	*-
!!!ENC: Craig Stuart Sapp
!!!END: 2004/12/06/
!!!ONB: Harmony and Root analysis done manually by Craig Sapp
!!chor2scor: -l 2 -s 0.6 -o %b.pmx
